logos/overloop-icon.svg

<?xml version="1.0" encoding="UTF-8"?>
<svg width="256px" height="256px" viewBox="0 0 256 256" version="1.1" xmlns="http://www.w3.org/2000/svg" preserveAspectRatio="xMidYMid">
    <title>Overloop</title>
    <defs>
        <linearGradient x1="100.000913%" y1="-7.14383695%" x2="0.00217923797%" y2="92.8571023%" id="overloopLinearGradient-1">
            <stop stop-color="#9933CC" offset="0%"></stop>
            <stop stop-color="#FF8800" offset="100%"></stop>
        </linearGradient>
    </defs>
    <g>
        <path d="M167.445744,169.059823 C169.210293,191.624606 162.956658,211.126503 146.975146,227.099225 C126.147981,247.935992 72.4988321,258.989811 14.5978512,255.296061 C10.9870169,255.067488 7.58361315,253.529645 5.02530955,250.971449 C2.4670151,248.413254 0.929471144,245.009336 0.700844099,241.398788 C-2.983677,183.505673 8.06989729,129.854883 28.9062413,109.027259 C44.8786106,93.0545373 64.3800777,86.7916214 86.9443635,88.5562094 C95.3095145,89.2145012 103.400841,90.7413728 112.67158,93.3928262 C108.511633,81.4704285 106.29909,72.6749174 105.174532,63.3308296 C102.788277,43.518072 107.359648,26.685914 120.653194,13.3920749 C136.524993,-2.4800742 163.422938,-4.82066761 180.181583,9.47889525 C189.381009,3.34132905 200.424526,0.583543139 211.42873,1.67557625 C222.433847,2.76760936 232.719431,7.64171229 240.532818,15.4675229 C248.356262,23.2809906 253.229343,33.5650644 254.320986,44.5680476 C255.413544,55.5710311 252.657007,66.6122319 246.521314,75.8109469 C260.820561,92.5791043 258.48002,119.477643 242.60822,135.349792 C229.314675,148.643631 212.482888,153.215102 192.670567,150.828794 C183.326685,149.713355 174.531368,147.482477 162.609234,143.331581 C155.967032,140.982759 149.370544,138.505021 142.824342,135.898368 L133.955882,132.396621 C131.386772,131.390897 128.899946,130.430888 126.486263,129.525737 C112.817864,124.369117 101.526579,120.885656 91.9358431,119.148497 C76.9879182,116.433042 66.245197,117.987343 56.9744572,124.195401 C54.4405466,125.908789 52.0824507,127.869036 49.9345466,130.046885 C37.8661279,142.124712 28.9062413,181.38451 29.8205156,226.175787 C74.6199481,227.090082 113.878422,218.148284 125.955983,206.070456 C139.715809,192.310327 141.498644,176.392463 132.831325,147.939624 L137.375267,149.731641 C149.306545,154.431114 158.504143,157.795717 166.412614,160.246026 C166.869751,163.190053 167.217175,166.106652 167.445744,169.059823 Z M147.779707,102.28891 L149.452829,106.549521 L153.713346,108.22268 C193.831695,124.021685 209.941206,125.959989 221.579915,114.321023 C227.111274,108.798685 227.73298,98.9243067 223.46332,94.6454095 C222.117509,93.2904254 220.478215,92.2618443 218.672523,91.6373811 C206.677247,87.495628 205.049839,71.2120465 215.984558,64.7754146 C218.95412,63.0182325 221.356832,60.446414 222.90927,57.3648764 C224.460793,54.2833388 225.096214,50.821455 224.739647,47.3896514 C224.383994,43.9578475 223.050982,40.7002171 220.899695,38.0029575 C218.748408,35.3056064 215.868445,33.2819074 212.601743,32.1716798 C208.680421,30.8209013 204.413504,30.8635989 200.519611,32.2926409 C196.625717,33.7215915 193.343473,36.44948 191.226014,40.0163248 C184.789524,50.9512849 168.506302,49.323841 164.36464,37.3282996 C163.738362,35.52202 162.706147,33.8831473 161.347535,32.5373975 C157.087018,28.2676431 147.203714,28.8893634 141.681499,34.4208439 C130.042789,46.0598102 131.990193,62.1696757 147.779707,102.28891 L147.779707,102.28891 Z" fill="url(#overloopLinearGradient-1)"></path>
    </g>
</svg>

<?xml version="1.0" encoding="UTF-8"?>
<svg width="256" height="256" version="1.1" xmlns="http://www.w3.org/2000/svg" preserveAspectRatio="xMidYMid">
	<defs>
		<linearGradient x1="100.001%" y1="-7.144%" x2=".002%" y2="92.857%" id="a">
			<stop stop-color="#93C" offset="0%"/>
			<stop stop-color="#F80" offset="100%"/>
		</linearGradient>
	</defs>
	<path d="M167.446 169.06c1.764 22.565-4.49 42.067-20.47 58.04-20.828 20.836-74.477 31.89-132.378 28.196A14.866 14.866 0 0 1 .7 241.4c-3.685-57.893 7.369-111.544 28.205-132.372C44.88 93.055 64.38 86.792 86.944 88.557c8.366.658 16.457 2.184 25.728 4.836-4.16-11.923-6.373-20.718-7.497-30.062-2.387-19.813 2.185-36.645 15.478-49.939C136.525-2.48 163.423-4.82 180.182 9.48a47.799 47.799 0 0 1 60.35 5.989 47.798 47.798 0 0 1 5.99 60.343c14.299 16.768 11.958 43.667-3.914 59.539-13.293 13.294-30.125 17.865-49.937 15.479-9.344-1.116-18.14-3.347-30.062-7.497a541.26 541.26 0 0 1-19.785-7.434l-8.868-3.501a559.843 559.843 0 0 0-7.47-2.871c-13.668-5.157-24.96-8.64-34.55-10.378-14.948-2.715-25.69-1.16-34.962 5.047a46.366 46.366 0 0 0-7.04 5.852c-12.068 12.078-21.028 51.338-20.113 96.129 44.799.914 84.057-8.028 96.135-20.106 13.76-13.76 15.543-29.678 6.875-58.13l4.544 1.792c11.932 4.7 21.13 8.064 29.038 10.514.457 2.944.804 5.86 1.033 8.814Zm-19.666-66.771 1.673 4.26 4.26 1.674c40.119 15.799 56.228 17.737 67.867 6.098 5.531-5.522 6.153-15.397 1.883-19.676a12.519 12.519 0 0 0-4.79-3.008c-11.996-4.141-13.623-20.425-2.688-26.862a18.042 18.042 0 0 0 8.755-17.385 18.036 18.036 0 0 0-12.138-15.218 18.027 18.027 0 0 0-21.376 7.844c-6.436 10.935-22.72 9.308-26.861-2.688a12.514 12.514 0 0 0-3.017-4.79c-4.261-4.27-14.144-3.649-19.667 1.883-11.638 11.639-9.69 27.749 6.099 67.868Z" fill="url(#a)"/>
</svg>
